X:1
T:House of Invercauld, The
T:House of Invercauld, The
T:Alexander Walker
C:Alexander Walker
L:1/8
M:4/4
K:E
V:1 treble 
V:1
 c | BGFE c2 ce | BGFE FCCA | BGFE efgf | edcA GEE :| B | egfg eBec | BEGE FCCB | egfg ecBG | %9
 Bcef geeB | egfg eBec | BEGF ECCE | B,EGE ABcd | ecBA GEE || %14

